X: 11221
T: Failte na miosq
%R: air, minuet, waltz
B: James Oswald "The Caledonian Pocket Companion" v.1 b.1 p.22
Z: 2020 John Chambers <jc:trillian.mit.edu>
N: Final repeat symbol but no others; not transcribed.
M: 3/4
L: 1/8
K: D
"_Slow"A2 |\
d3 fTe>d | TB4 d2 | A3 dBA | TF3 E D2 |\
E2 F2 d2 | {B}TA3 GFE | D2 d2 (de) | d4 (d>e) |\
(Tf>ef)gfe | d3 c B2 |
A3 dBA | TF3 E (F/E/D) |\
(E2 F2) d2 | (A>B)(F>A) (E>F) | D2 d2 (de) | d4 |[| A2 |\
de f2 (f/g/)a | Tf3 e (f/e/)d | (B2 A2) B2 | b3 a f2 |\
(aba)gfe |
(fg)(fe)(dc) | B2 e2 (e/f/g) | Te3 d B2 |\
(dcd)efg | {fg}a3 b a2 | (ba)(gf)(ed) | d3 fed |\
TB3 ABd | A2 gfed | B2 ABdF | TE4 D2 |]
d2 (.D.D.D.D) | d2 (.D.D.D.D) | G3 dBA | TF3 E (F/E/)D |\
(E2 F2) d2 | {B}TA3 GFE | D2 d2 de | Td4 fe |\
d2 (.D.D.D.D) | d2 DEFD | (GFG)dBA |
F3 E D2 |\
(E2 F2) d2 | (3(ABA) (3(FAF) (3(EFE) |\
D2 d2 (de) | d4 |[| A2 |\
de f2 (f/g/a) | Tf3 e d2 | d2 b2 a2 | b3 a g2 |\
a2 (3(baf) (3(afe) | f2 (gf)(ed) |
B2 e2 (e/f/g) | e3 d B2 |\
d3 efg | {fg}a3 b a2 | (3(bag) (3(agf) (3(gfe) | d3 fed |\
=c4 B2 | A2 (gf)(ed) | B2 ABdF | TE4 D2 |]


